priv/static/svgs/icons_new/generic-user.svg

<svg width="32" height="32" viewBox="0 0 32 32" fill="none" xmlns="http://www.w3.org/2000/svg">
<path d="M20.3839 10.8846C20.3839 13.3062 18.4208 15.2692 15.9992 15.2692C13.5777 15.2692 11.6146 13.3062 11.6146 10.8846C11.6146 8.46306 13.5777 6.5 15.9992 6.5C18.4208 6.5 20.3839 8.46306 20.3839 10.8846Z" stroke="black"/>
<path d="M15.9992 25.5C20.3425 25.5 22.8449 24.3797 24.0057 23.6586C24.5489 23.3212 24.8166 22.6999 24.7614 22.0563C24.6859 21.1773 24.3788 20.2994 24.0661 19.6031C23.6555 18.6888 22.7051 18.1923 21.7029 18.1923H10.2956C9.29337 18.1923 8.34296 18.6888 7.93239 19.6031C7.61969 20.2994 7.31257 21.1773 7.23713 22.0563C7.18189 22.6999 7.44961 23.3212 7.99278 23.6586C9.15358 24.3797 11.6559 25.5 15.9992 25.5Z" stroke="black"/>
</svg>

<svg width="32" height="32" viewBox="0 0 32 32" fill="none" xmlns="http://www.w3.org/2000/svg">
  <symbol id="item" viewBox="0 0 32 32" stroke-width="1" fill="none">
    <path d="M20.384 10.885a4.385 4.385 0 1 1-8.77 0 4.385 4.385 0 0 1 8.77 0ZM16 25.5c4.343 0 6.845-1.12 8.006-1.841.543-.338.81-.96.755-1.603-.075-.879-.382-1.757-.695-2.453-.41-.914-1.36-1.41-2.363-1.41H10.296c-1.003 0-1.953.496-2.364 1.41-.312.696-.62 1.574-.695 2.453-.055.644.213 1.265.756 1.603 1.16.72 3.663 1.841 8.006 1.841Z" stroke="currentColor"/>
  </symbol>
</svg>
